!!!!SEGMENT: Wil1002a-Missa_Laudate_Deum-Kyrie.krn
!!!id: Wil1002a
!!!AGN: Mass; Kyrie
!!!SCT: Meier
!!!voices: 4
!!!COM: Adrian Willaert
!!!OPR: Missa Laudate Deum
!!!OTL: Kyrie
**kern	**kern	**kern	**kern
*part4	*part3	*part2	*part1
*staff4	*staff3	*staff2	*staff1
*I"Bassus	*I"Tenor	*I"Altus	*I"Superius
*I'B	*I'T	*I'A	*I'S
*clefF4	*clefGv2	*clefGv2	*clefG2
*k[]	*k[]	*k[]	*k[]
*C:	*C:	*C:	*C:
*M2/1	*M2/1	*M2/1	*M2/1
*met(C|)	*met(C|)	*met(C|)	*met(C|)
!!section: Kyrie I
!!!OMD: Kyrie I
=1	=1	=1	=1
0r	0r	0d	0r
=2	=2	=2	=2
0r	0r	1B	0r
.	.	1c	.
=3	=3	=3	=3
0r	0r	1d	1r
.	.	1G	[1g
=4	=4	=4	=4
0r	0r	2r	1g]
.	.	2c	.
.	.	1c	1e
=5	=5	=5	=5
0r	0r	1d	1f
.	.	[1e	1g
=6	=6	=6	=6
1r	0r	2e]	1c
.	.	4d	.
.	.	4c	.
[1G	.	1d	1r
=7	=7	=7	=7
1G]	0r	2r	0g
.	.	2B	.
1E	.	2B	.
.	.	2G	.
=8	=8	=8	=8
1F	0r	0d	1a
[1G	.	.	[1b
=9	=9	=9	=9
1G]	0G	1B	2b]
.	.	.	4a
.	.	.	4g
1C	.	[1c	1g
=10	=10	=10	=10
1C	1E	1c]	2r
.	.	.	2e
2D	1F	1A	2d
2F	.	.	2c
=11	=11	=11	=11
0E	1G	1B	1g
.	1C	[1c	2e
.	.	.	2g
=12	=12	=12	=12
2AA	0r	2c]	2a
1A	.	2F	1cc
.	.	1c	.
4G	.	.	4b
4F	.	.	4a
=13	=13	=13	=13
1E	1G	2r	1.b
.	.	2.g	.
1r	1E	.	.
.	.	4f	.
.	.	4e	[2cc
.	.	4d	.
=14	=14	=14	=14
0r	1F	2c	4cc]
.	.	.	4b
.	.	2f	2a
.	1G	2e	2g
.	.	2d	2b
=15	=15	=15	=15
1r	1C	2.c	2a
.	.	.	1g
.	.	4B	.
1D	2r	1A	.
.	[2D	.	2f#i
=16	=16	=16	=16
2BB	2D]	1G	1g
2C	2E	.	.
2D	2F	1r	1r
2GG	2G	.	.
=17	=17	=17	=17
4AA	2C	0r	0r
4BB	.	.	.
4C	1c	.	.
4D	.	.	.
4E	.	.	.
4F	.	.	.
[2G	4B	.	.
.	4A	.	.
=18	=18	=18	=18
4G]	1B	1d	2r
4F	.	.	.
4E	.	.	1g
4D	.	.	.
1E	2r	2B	.
.	2G	2c	2e
=19	=19	=19	=19
2D	2A	2d	2f
2C	1c	2G	2g
1F	.	4A	1c
.	.	4B	.
.	4B	4c	.
.	4A	4d	.
=20	=20	=20	=20
2.E	1.B	4e	0r
.	.	4f	.
.	.	2.g	.
4D	.	.	.
4E	.	.	.
4D	.	4f	.
4C	[2c	4e	.
4BB	.	4d	.
=21	=21	=21	=21
2AA	4c]	1e	0r
.	4B	.	.
2C	4A	.	.
.	4G	.	.
2D	2B	2d	.
[2F	[2A	2c	.
=22	=22	=22	=22
2F]	2A]	1f	0r
4E	4G	.	.
4D	4F	.	.
[1C	2.G	2.e	.
.	4F	4d	.
=23	=23	=23	=23
1C]	2G	4e	0r
.	.	4d	.
.	2.A	4c	.
.	.	4B	.
[1F	.	2A	.
.	4G	.	.
.	4F	2c	.
.	4E	.	.
=24	=24	=24	=24
2F]	2.D	2d	1.a
1D	.	1f	.
.	4E	.	.
.	2F	.	.
4C	[2G	4e	2b
4BB	.	4d	.
=25	=25	=25	=25
1AA	4G]	1c	1cc
.	4F#i	.	.
.	4F#i	.	.
.	4E	.	.
[1GG	1G	1r	2.b
.	.	.	4a
=26	=26	=26	=26
1GG]	1D	2r	4b
.	.	.	4cc
.	.	1g	1b
1r	1r	.	.
.	.	2e	4a
.	.	.	4g
=27	=27	=27	=27
0r	0r	2f	2a
.	.	2g	2b
.	.	2c	[1cc
.	.	2e	.
=28	=28	=28	=28
0r	0A	2f	1cc]
.	.	2.e	.
.	.	.	2r
.	.	4d	.
.	.	4c	[2cc
.	.	4B	.
=29	=29	=29	=29
0r	1F	2A	4cc]
.	.	.	4b
.	.	2d	2a
.	1G	4B	2.g
.	.	4G	.
.	.	[2d	.
.	.	.	4f
=30	=30	=30	=30
1r	1.A	2d]	1e
.	.	2c#i	.
[1D	.	1d	2r
.	2D	.	[2a
=31	=31	=31	=31
1D]	1A	1r	4a]
.	.	.	4g
.	.	.	4f
.	.	.	4e
1BB	2B	2r	2d
.	2d	2B	2g
=32	=32	=32	=32
1C	2.c	2A	4e
.	.	.	4c
.	.	2G	1g
.	4B	.	.
1D	1A	1d	.
.	.	.	2f#i
=	=	=	=
00GG	00G	00B	00g
=||	=||	=||	=||
*M2/1	*M2/1	*M2/1	*M2/1
*met(C|)	*met(C|)	*met(C|)	*met(C|)
!!section: Christe
!!!OMD: Christe
1.C	1r	1.c	0r
.	[1G	.	.
2BB	.	2d	.
=33	=33	=33	=33
1C	2G]	1e	0r
.	2A	.	.
2GG	1B	2.d	.
[2G	.	.	.
.	.	4B	.
=34	=34	=34	=34
2G]	1A	2c	2r
2F	.	2d	1d
1G	1r	1B	.
.	.	.	2e
=35	=35	=35	=35
2D	2r	1A	1f
1A	1c	.	.
.	.	1r	1e
2G	2B	.	.
=36	=36	=36	=36
4A	2c	1.c	2r
4G	.	.	.
4F	2.A	.	1a
4E	.	.	.
1F	.	.	.
.	4G	.	.
.	4A	2d	2a
.	4B	.	.
=37	=37	=37	=37
1E	2c	1e	1g
.	2B	.	.
1r	1A	1c	1cc
=38	=38	=38	=38
0GG	1G	2.g	1b
.	.	4f	.
.	1r	2e	1g
.	.	[2d	.
=39	=39	=39	=39
1D	1F	4d]	2.a
.	.	4c	.
.	.	1c	.
.	.	.	4g
1D	2.F	.	1f
.	.	2B	.
.	4G	.	.
=40	=40	=40	=40
2AA	1A	1c	2.e
2.C	.	.	.
.	.	.	4f
.	2.G	2r	1g
4D	.	.	.
4E	.	2G	.
4C	4A	.	.
=41	=41	=41	=41
1D	4B	0d	2r
.	4c	.	.
.	1A	.	2a
1BB	.	.	2.b
.	2G#i	.	.
.	.	.	8aL
.	.	.	8bJ
=42	=42	=42	=42
1AA	1A	2.c	2cc
.	.	.	2a
.	.	4d	.
1C	1r	2e	2.g
.	.	2e	.
.	.	.	4a
=43	=43	=43	=43
1D	0r	2.d	2b
.	.	.	1a
.	.	4c	.
1E	.	1B	.
.	.	.	2g#i
=44	=44	=44	=44
1F	2r	1A	2.a
.	2A	.	.
.	.	.	4g
1D	2A	2r	1f
.	2A	2d	.
=45	=45	=45	=45
1E	1G	2c	1e
.	.	2B	.
1F	1c	1A	1r
=46	=46	=46	=46
1G	1.B	2r	0r
.	.	1d	.
2.G	.	.	.
.	[2G	2d	.
4F	.	.	.
=47	=47	=47	=47
2E	2G]	2c	0r
2D	2.A	1f	.
[1A	.	.	.
.	4G	.	.
.	4F	2e	.
.	4E	.	.
=48	=48	=48	=48
2A]	0F	2c	2r
2D	.	2.d	2a
1D	.	.	2a
.	.	4c	.
.	.	4B	2a
.	.	4A	.
=49	=49	=49	=49
0r	1E	1B	1g
.	1A	2A	1cc
.	.	[2e	.
=50	=50	=50	=50
2r	2.G	2e]	1b
1G	.	2d	.
.	4F	.	.
.	1E	2c	1g
2G	.	2B	.
=51	=51	=51	=51
2.F	2r	2A	2.a
.	2F	1c	.
4E	.	.	4g
1D	2.F	.	1f
.	.	2B	.
.	4G	.	.
=52	=52	=52	=52
0C	1A	1c	1e
.	1G	2r	1r
.	.	[2c	.
=53	=53	=53	=53
2r	1c	4c]	1r
.	.	4d	.
2.C	.	4e	.
.	.	4f	.
.	2c	1g	[1e
4D	.	.	.
4E	2c	.	.
4F	.	.	.
=54	=54	=54	=54
1G	1B	2r	2e]
.	.	1g	2d
1C	1e	.	2.g
.	.	2c	.
.	.	.	4a
=55	=55	=55	=55
2r	1d	1f	2b
2D	.	.	2a
2E	2B	2.e	2g
4AA	[2c	.	[2a
4BB	.	4d	.
=56	=56	=56	=56
4C	4c]	2e	4a]
4D	4B	.	4g
2E	4A	2c	1g
.	4G	.	.
1D	1A	[1dl 	.
.	.	.	2f#i
=	=	=	=
00GG	00G	00d]	00g
=||	=||	=||	=||
*M2/1	*M2/1	*M2/1	*M2/1
*met(C|)	*met(C|)	*met(C|)	*met(C|)
!!section: Kyrie II
!!!OMD: Kyrie II
1r	0r	1.d	1r
[1G	.	.	[1d
.	.	2B	.
=57	=57	=57	=57
2G]	0G	1B	2d]
2E	.	.	2.g
1E	.	1r	.
.	.	.	4a
.	.	.	2b
=58	=58	=58	=58
0r	2.c	0r	2g
.	.	.	1cc
.	4d	.	.
.	2e	.	.
.	[2d	.	4b
.	.	.	4a
=59	=59	=59	=59
1.G	2d]	1r	2.b
.	4c	.	.
.	4B	.	4g
.	2d	[1G	1g
2E	2c	.	.
=60	=60	=60	=60
1E	1B	1G]	2r
.	.	.	2g
2r	1A	2.c	2a
2F	.	.	[2cc
.	.	4d	.
=61	=61	=61	=61
2E	0r	2e	2cc]
2F	.	1d	4b
.	.	.	4a
[1G	.	.	1b
.	.	4c	.
.	.	4B	.
=62	=62	=62	=62
2G]	0r	2d	0r
1A	.	2c	.
.	.	1B	.
2G	.	.	.
=63	=63	=63	=63
1.F	2r	1A	1.c
.	2A	.	.
.	2A	2r	.
2E	2G	2c	2c
=64	=64	=64	=64
1D	2.A	2d	2.f
.	.	2.f	.
.	4B	.	4g
1C	2.c	.	2a
.	.	4e	.
.	.	[2e	[2g
.	4B	.	.
=65	=65	=65	=65
2.C	2G	4e]	2g]
.	.	4d	.
.	2A	4c	4f
4D	.	4B	4e
2E	2G	2c	2g
[2D	2A	2d	[2f
=66	=66	=66	=66
2D]	2D	2B	2f]
2C	1G	2c	2e
1D	.	1A	[1d
.	2F	.	.
=67	=67	=67	=67
1GG	1B-i	1r	1d]
1r	1A	1c	2r
.	.	.	[2e
=68	=68	=68	=68
1.C	0r	2.c	4e]
.	.	.	4f
.	.	.	2g
.	.	4B	.
.	.	2A	2a
2BB	.	2G	2b
=69	=69	=69	=69
4AA	2.E	2A	2cc
4BB	.	.	.
4C	.	1e	2.cc
4D	4F	.	.
2E	2G	.	.
.	.	.	4b
[2F	[2A	2c	[2a
=70	=70	=70	=70
2F]	4A]	2d	2a]
.	4B	.	.
2E	2.c	2e	2g
1F	.	2A	1a
.	4B	.	.
.	[2A	[2c	.
=71	=71	=71	=71
1.E	2A]	2c]	1r
.	2G	4B	.
.	.	4A	.
.	1c	1G	2r
4D	.	.	2e
4C	.	.	.
=72	=72	=72	=72
2D	1B	1r	2f
2E	.	.	2g
1AA	1A	2r	4a
.	.	.	4g
.	.	2A	4f
.	.	.	4e
=73	=73	=73	=73
0r	0r	2B	2d
.	.	2c	1a
.	.	4d	.
.	.	4c	.
.	.	4B	[2b
.	.	4A	.
=74	=74	=74	=74
0r	1r	2G	2b]
.	.	2A	2cc
.	[1c	4F	2a
.	.	4G	.
.	.	4A	[2cc
.	.	4B	.
=75	=75	=75	=75
1r	1c]	4c	4cc]
.	.	4d	4b
.	.	1e	2g
1F	2.A	.	1a
.	.	2d	.
.	4B	.	.
=76	=76	=76	=76
1E	2c	1e	1g
.	2B	.	.
2D	2.d	1r	1r
[2G	.	.	.
.	4c	.	.
=77	=77	=77	=77
4G]	4B	0r	0r
4F	4A	.	.
4E	2B	.	.
4D	.	.	.
2E	2G	.	.
2C	4A	.	.
.	4G	.	.
=78	=78	=78	=78
2.F	4A	0r	1r
.	4B	.	.
.	1c	.	.
4E	.	.	.
1D	.	.	2r
.	2B	.	[2f
=79	=79	=79	=79
1C	1c	1r	2f]
.	.	.	2e
1D	1A	2r	2.f
.	.	[2d	.
.	.	.	4g
=80	=80	=80	=80
1AA	2r	2d]	1a
.	1A	2c	.
1BB	.	2.d	1r
.	2G	.	.
.	.	4e	.
=81	=81	=81	=81
2AA	2.A	2f	2r
1A	.	2.e	2.cc
.	4B	.	.
.	2c	.	.
.	.	4f	4b
2G	2d	2g	[2b
=82	=82	=82	=82
1A	2c	0e	4b]
.	.	.	4a
.	4B	.	1a
.	4A	.	.
1E	1B	.	.
.	.	.	2g#i
=83	=83	=83	=83
1r	1A	2r	1a
.	.	2.e	.
1F	1r	.	2r
.	.	4d	.
.	.	[2d	[2a
=84	=84	=84	=84
1E	1G	2d]	4a]
.	.	.	4g
.	.	2c	2.g
1D	2.A	1d	.
.	.	.	4f
.	.	.	2f
.	4B	.	.
=85	=85	=85	=85
2.C	1c	0e	2g
.	.	.	1a
4D	.	.	.
1E	1B	.	.
.	.	.	2g
=86	=86	=86	=86
1A	1r	2r	2a
.	.	2c	2cc
1G	1B	2.d	1b
.	.	4e	.
=87	=87	=87	=87
2.F	2c	1f	1a
.	1d	.	.
4G	.	.	.
1A	.	1e	2r
.	2c#i	.	[2a
=88	=88	=88	=88
1D	2d	2r	2a]
.	2D	2f	2a
1r	2G	2d	2b
.	2E	[2g	2g
=89	=89	=89	=89
1r	1A	2g]	1cc
.	.	2f	.
1r	2G	2g	2b
.	2A	2c	[2a
=90	=90	=90	=90
1.D	2D	0f	4a]
.	.	.	4g
.	2A	.	4f
.	.	.	4e
.	2B	.	2d
2D	2A	.	[2a
=91	=91	=91	=91
1C	2.c	1e	4a]
.	.	.	4g
.	.	.	1g
.	4B	.	.
1D	1A	[1dl	.
.	.	.	2f#i
=92	=92	=92	=92
00GGl	00Gl	00d]	00gl
==	==	==	==
*-	*-	*-	*-
!!!system-decoration: [*]
!!!RDF**kern: i = editorial accidental
!!!RDF**kern: l = terminal long
!!!ENC: Benjamin Ory
!!!END: 2022/3/22
!!!EED: Benjamin Ory
!!!EEV: 2022/03/22
!!!YEC: Copyright 2022 Benjamin Ory, All Rights Reserved
!!!ONB: Translated from MusicXML on 2022/03/22
